X:44
T: I'm Working on a Building
C: Bill Monroe
S: MandoZine TablEdit Archives
Z: TablEdited by Mike Stangeland for MandoZine
S: ImWorkingBuilding-A-Monroe.tef
L: 1/8
Q: 452
M: 4/4
K: A
 z4 zA cd | ea za a2 ac' | a=g =z=g ed =ce | A2 A2 (3E^D=D AA |
 "First Break""A"A,4 A,C (3EFF | [eA][eA] z[eA] [e2A2] [eA][eA] | =c=c z=c zB AA | [aA][=gA] z[=gA] z[aA] [=gA][aA] |
 [e2A2] [e2A2] EF AA | [aA][aA] z[aA] z[aA] [aA][aA] | "E"[=gA][fA] ze z=c (3B=cB | "A"A2 A2 =GA FA |
 [A2E2] [A2E2] EF AA | =c=c z=c zB AA | a=g =z=g z=g =g2 | e2 =c2 =cB/=c/ BA |
 E2 E2 EF AA | A2 [e2A2] af e=c | =c=c z2 "E"(3B=cB AF | "A"A2 [AE][AE] A,[EA,] z[EA,] |
 [e8A8E8A,8] |
